src/components/00-materials/images-raw/Coins.svg

<svg width="96" height="96" viewBox="0 0 96 96" fill="none" xmlns="http://www.w3.org/2000/svg">
<path d="M39 29H36C35.7348 29 35.4804 28.8946 35.2929 28.7071C35.1054 28.5196 35 28.2652 35 28V22C35 21.7348 35.1054 21.4804 35.2929 21.2929C35.4804 21.1054 35.7348 21 36 21H76C76.2652 21 76.5196 21.1054 76.7071 21.2929C76.8946 21.4804 77 21.7348 77 22V29H39ZM39 29C38.7348 29 38.4804 29.1054 38.2929 29.2929C38.1054 29.4804 38 29.7348 38 30V33L47.58 37H79C79.2652 37 79.5196 36.8946 79.7071 36.7071C79.8946 36.5196 80 36.2652 80 36V30C80 29.7348 79.8946 29.4804 79.7071 29.2929C79.5196 29.1054 79.2652 29 79 29H39ZM75 37V45M77 53V59.86C77.0165 60.1433 76.9209 60.4217 76.7337 60.635C76.5466 60.8484 76.283 60.9795 76 61H56.12M75 61V69M52 69H77C77.283 69.0205 77.5466 69.1516 77.7337 69.365C77.9209 69.5783 78.0165 69.8567 78 70.14V75.86C78.0165 76.1433 77.9209 76.4217 77.7337 76.635C77.5466 76.8484 77.283 76.9795 77 77H35M54.6 45H79C79.283 45.0205 79.5466 45.1516 79.7337 45.365C79.9209 45.5783 80.0165 45.8567 80 46.14V51.86C80.0165 52.1433 79.9209 52.4217 79.7337 52.635C79.5466 52.8484 79.283 52.9795 79 53H57L54.6 45Z" stroke="#00008F" stroke-width="2" stroke-linecap="round" stroke-linejoin="round"/>
<path d="M35 77C47.1503 77 57 67.1503 57 55C57 42.8497 47.1503 33 35 33C22.8497 33 13 42.8497 13 55C13 67.1503 22.8497 77 35 77Z" stroke="#00008F" stroke-width="2" stroke-linecap="round" stroke-linejoin="round"/>
<path d="M35 71C43.8366 71 51 63.8366 51 55C51 46.1634 43.8366 39 35 39C26.1634 39 19 46.1634 19 55C19 63.8366 26.1634 71 35 71Z" stroke="#00008F" stroke-width="2" stroke-linecap="round" stroke-linejoin="round"/>
<path d="M35 61V47L31 50M39 61H31H39Z" stroke="#00008F" stroke-width="2" stroke-linecap="round" stroke-linejoin="round"/>
</svg>

<svg width="96" height="96" viewBox="0 0 96 96" fill="none" xmlns="http://www.w3.org/2000/svg"><path d="M39 29h-3a1 1 0 01-1-1v-6a1 1 0 011-1h40a1 1 0 011 1v7H39zm0 0a1 1 0 00-1 1v3l9.58 4H79a1 1 0 001-1v-6a1 1 0 00-1-1H39zm36 8v8m2 8v6.86A1.08 1.08 0 0176 61H56.12M75 61v8m-23 0h25a1.08 1.08 0 011 1.14v5.72A1.08 1.08 0 0177 77H35m19.6-32H79a1.08 1.08 0 011 1.14v5.72A1.08 1.08 0 0179 53H57l-2.4-8z" stroke="#00008F" stroke-width="2" stroke-linecap="round" stroke-linejoin="round"/><path d="M35 77c12.15 0 22-9.85 22-22s-9.85-22-22-22-22 9.85-22 22 9.85 22 22 22z" stroke="#00008F" stroke-width="2" stroke-linecap="round" stroke-linejoin="round"/><path d="M35 71c8.837 0 16-7.163 16-16s-7.163-16-16-16-16 7.163-16 16 7.163 16 16 16z" stroke="#00008F" stroke-width="2" stroke-linecap="round" stroke-linejoin="round"/><path d="M35 61V47l-4 3m8 11h-8 8z" stroke="#00008F" stroke-width="2" stroke-linecap="round" stroke-linejoin="round"/></svg>
